X: 27374
T: Mo Ceol Sibh A Laochra
R: polka
M: 2/4
K: Adorian
(A/G/)|(EA) (AB)|c2 (Ac)|(B{c/B/}A) (GB)|(dBG)A|
(EA) (AB)|c2 d2|(3efg (dB)|(PBA) A:|
d|(ea) (ag)|ef ge|(dBG)B|(PAG) (E{G/E/}D)|
(ea) (ag)|efga|(bag)b|a2 (ab)|
c'b ag|(efg)e|dB gd|(PBA) AG|
(EA) (AB)|c2 d2|(3efg (dB)|(PBA) A||

